build/img/svg/liga-a.svg

<svg width="316" height="289" fill="none" xmlns="http://www.w3.org/2000/svg"><path d="M159.09 209.863l-32.161 2.932-6.376 8.776 4.715 4.696-6.463.266-4.485 3.776 14.405.237v-.038l5.224-5.559-3.457-3.302 20.839-1.509 7.759-10.275z" fill="#2C39F2"/><path d="M157.952 208.173l-45.561 64.23 1.51 1.046 45.561-64.23-1.51-1.046z" fill="#000"/><path d="M162.126 204.275l-4.802 3.501 1.316.997h.009l1.316.996 2.161-5.494z" fill="#000"/><path d="M126.331 274.097l-3.64 7.201 7.913 6.783 9.661-.208" fill="#fff"/><path d="M130.263 289.001l-8.72-7.477 3.956-7.836 1.652.815-3.322 6.566 7.106 6.091 9.305-.199.039 1.821-10.016.219z" fill="#000"/><path d="M154.449 250.175l3.976-3.397 1.229 4.621" fill="#fff"/><path d="M158.772 251.638l-.864-3.217-2.852 2.439-1.201-1.376 5.081-4.345 1.613 6.034-1.777.465z" fill="#000"/><path d="M149.535 248.846l3.966-3.387 1.239 4.62" fill="#fff"/><path d="M153.847 250.308l-.855-3.207-2.862 2.438-1.2-1.385 5.089-4.336 1.604 6.025-1.776.465z" fill="#000"/><path d="M144.418 247.389l2.746-4.886 2.459 6.119" fill="#fff"/><path d="M148.778 248.954l-1.748-4.336-1.796 3.207-1.613-.882 3.688-6.556 3.178 7.893-1.709.674z" fill="#000"/><path d="M143.703 263.743c.452-8.994 4.994-9.099 4.888-8.539l6.454.218c2.909-.218 4.455-1.072 4.609-4.022l-10.102-2.391-3.803.949-.74-4.83 3.544-5.303 3.198 2.675 3.601-5.474 3.659 3.387 2.871-4.611 3.851 3.786 2.285-5.332.145-1.718.172-2.134-5.118-9.422-16.834 4.849-9.527 4.857s-9.392 1.49-8.364 12.239v10.342l-3.112 8.112-16.796-9.754-1.709 1.727c2.458 7.922 7.241 13.71 14.232 18.302l1.546 1.347 7.51 3.463-1.719 3.596 4.763 4.108 4.408 3.909h10.928l.01-1.234c0-2.172-.269-4.781-3.39-4.914h-4.149l-2.737-3.909s2.997-6.736 2.622-8.937" fill="#fff"/><path d="M149.455 288.99h-12.196l-4.667-4.136-5.272-4.554 1.613-3.397-6.895-3.226-1.498-1.309c-7.385-4.867-12.148-11.006-14.549-18.757l-.163-.522 2.603-2.618 16.469 9.563 2.66-6.945v-10.18c-1.018-10.588 7.673-12.837 8.979-13.112l9.574-4.867 17.555-5.057 5.599 10.313-.404 4.402-2.813 6.575-3.995-3.918-2.862 4.582-3.678-3.406-3.572 5.437-3.198-2.676-2.776 4.156.538 3.491 3.044-.759 11.063 2.619-.038.759c-.202 3.956-2.871 4.696-5.455 4.886h-.048l-7.404-.256a3.066 3.066 0 00-.586.389c-.816.692-2.218 2.571-2.448 7.315l-1.844-.095c.346-6.86 3.044-8.786 4.187-9.298.787-.351 1.556-.38 2.036-.085l6.021.208c2.391-.189 3.361-.787 3.63-2.419l-9.104-2.154-4.571 1.139-.951-6.167 4.312-6.452 3.188 2.666 3.64-5.522 3.63 3.369 2.89-4.64 3.707 3.643 1.69-3.956.279-3.444-4.638-8.539-16.038 4.621-9.699 4.905c-.346.057-8.528 1.508-7.596 11.262v10.588l-3.553 9.269-17.113-9.914-.816.825c2.352 7.201 6.712 12.704 13.694 17.296l.096.076 1.44 1.262 8.23 3.795-1.815 3.804 4.235 3.662 4.158 3.682h9.661v-.332c0-2.875-.653-3.919-2.506-4.004h-4.591l-3.303-4.716.211-.464c1.114-2.505 2.804-7.012 2.555-8.425l1.815-.304c.365 2.125-1.69 7.173-2.478 8.994l2.17 3.103h3.669c4.302.18 4.302 4.279 4.302 5.825l-.01 2.144z" fill="#000"/><path d="M140.678 269.845c1.229-1.565 3.985-6.831 3.985-6.831l3.217-2.808.086-1.111.404-5.161 3.63-3.463c-3.601-5.446-9.19-.986-9.19-.986l-.5 7.115-1.748-.341-3.351 1.138" fill="#fff"/><path d="M141.475 270.472l-1.614-1.243c.961-1.224 3.131-5.228 3.88-6.67l.086-.171 3.054-2.656.48-6.253 3.265-3.112c-.739-.873-1.594-1.385-2.554-1.537-1.786-.275-3.572.731-4.302 1.205l-.548 7.78-2.612-.503-3.092 1.044-.663-1.907 3.611-1.224.884.171.451-6.424.346-.275c.125-.095 3.025-2.372 6.252-1.869 1.776.275 3.274 1.319 4.446 3.093l.461.702-3.957 3.776-.49 6.3-3.389 2.951c-.49.939-2.833 5.351-3.995 6.822zM143.954 236.149l-6.575 1.819.494 1.755 6.576-1.819-.495-1.755z" fill="#000"/><path d="M143.577 236.33l-4.827 4.088 1.2 1.383 4.827-4.087-1.2-1.384zM147.294 230.897l-.509-1.746 10.064-2.837 2.094 1.433-1.047 1.499-1.383-.949-9.219 2.6z" fill="#000"/><path d="M165.359 243.183l-.168 1.796 7.871.716.167-1.795-7.87-.717zM170.61 254.635l-4.82-1.575 1.017-3.473-5.608-1.66.615-2.021 7.615 2.268-1.018 3.52 2.862.939-.663 2.002z" fill="#2C39F2"/><path d="M140.894 269.075c-1.806-10.484-10.218-6.907-10.218-6.907l10.218 6.907z" fill="#fff"/><path d="M139.975 269.225c-.528-3.083-1.7-5.142-3.476-6.1-2.478-1.338-5.436-.133-5.464-.124l-.73-1.669c.153-.067 3.783-1.575 7.058.189 2.305 1.234 3.793 3.729 4.427 7.401l-1.815.303z" fill="#000"/><path d="M122.073 242.502l3.073 3.178 1.153 4.222-.269 1.623-4.715 3.187-2.526-8.519 3.284-3.691z" fill="#fff"/><path d="M120.783 256.173l-3.025-10.209 4.283-4.81 3.918 4.061 1.277 4.63-.365 2.201-6.088 4.127zm-.97-9.763l2.026 6.841 3.342-2.258.173-1.044-1.047-3.804-2.218-2.296-2.276 2.561z" fill="#000"/><path d="M115.549 237.816s-.759-3.074-2.363-4.364c-1.748-1.404-2.458-1.575-2.458-1.575l.029 2.011-.269-.246a3.048 3.048 0 00-4.149.057l1.277.664a6.434 6.434 0 00-3.053 3.301l-.308.75 1.402.36-1.555 7.135 4.388-5.882 2.622-3.359 4.437 1.148z" fill="#fff"/><path d="M102.293 249.864l2.276-10.427-1.565-.408.701-1.708a7.245 7.245 0 012.112-2.865l-1.027-.541.902-.863a3.961 3.961 0 014.12-.863l-.019-1.461 1.143.265c.211.048 1.056.323 2.833 1.755 1.796 1.443 2.593 4.507 2.679 4.858l.365 1.48-5.339-1.376-2.248 2.885-6.933 9.269zm3.207-12.068l1.239.322-.835 3.843 1.844-2.467 3.005-3.852.788.199-1.681-1.527a2.09 2.09 0 00-1.421-.55h-.019l1.181.616-1.575.797a5.555 5.555 0 00-2.526 2.619zm6.194-1.917l2.44.636c-.365-.863-.884-1.831-1.537-2.353a18.418 18.418 0 00-.941-.712l.038 2.429z" fill="#000"/><path d="M129.406 269.569l6.607 1.366v-.057c.096-1.689-.912-3.244-2.496-3.88l-.25-.104.614-9.355-9.747-3.378c-2.093.323-3.217 2.619-2.151 4.431l.365.636 6.377 1.271.816 6.518-.135 2.552z" fill="#fff"/><path d="M136.899 271.979l-1.057-.161-7.384-1.527.172-3.255-.729-5.787-6.137-1.224-.576-.987a3.847 3.847 0 01-.135-3.624 3.945 3.945 0 012.949-2.163l.23-.038 10.631 3.681-.615 9.402a4.86 4.86 0 012.708 4.611l-.057 1.072zm-6.521-3.14l4.6.949a3.05 3.05 0 00-1.796-1.945l-.874-.342.605-9.326-8.854-3.065a2.07 2.07 0 00-1.363 1.11 1.99 1.99 0 00.076 1.926l.164.276 6.626 1.318.912 7.249-.096 1.85z" fill="#000"/><path d="M123.326 239.428c1.114-.797 1.066-1.736.807-3.074l-.029-.171-1.7.92a3.929 3.929 0 00-5.877-.322c-1.239 1.243-1.402 3.188-.509 4.696l.01.01c.941 1.575 2.861 2.4 4.619 1.821a3.954 3.954 0 001.411-.806l.096.038.077-.209a3.839 3.839 0 001.095-2.903z" fill="#fff"/><path d="M119.503 244.399c-1.691 0-3.352-.911-4.274-2.457-1.143-1.917-.874-4.298.634-5.807 1.008-1.006 2.324-1.518 3.736-1.432a4.86 4.86 0 012.986 1.252l2.19-1.177.259 1.405c.25 1.328.365 2.609-.797 3.671a4.726 4.726 0 01-1.22 2.96l-.345.921-.471-.19a5.062 5.062 0 01-1.268.626c-.47.152-.95.228-1.43.228zm-.192-7.875c-.798 0-1.547.313-2.132.901-.922.921-1.076 2.401-.365 3.596.749 1.262 2.237 1.86 3.543 1.433a3.023 3.023 0 001.076-.617l.134-.133a2.934 2.934 0 00.836-2.22l-.029-.493.413-.294c.403-.285.576-.55.576-1.072l-1.21.654-.48-.616a2.976 2.976 0 00-2.18-1.129c-.058-.01-.115-.01-.182-.01z" fill="#000"/><path d="M121.924 236.283l-2.865 1.662.933 1.571 2.866-1.662-.934-1.571z" fill="#000"/><path d="M119.069 249.797c1.697 0 3.073-1.36 3.073-3.036 0-1.677-1.376-3.036-3.073-3.036s-3.073 1.359-3.073 3.036c0 1.676 1.376 3.036 3.073 3.036z" fill="#fff"/><path d="M119.071 250.709a4.034 4.034 0 01-2.583-.94 3.902 3.902 0 01-1.393-2.685 3.892 3.892 0 01.941-2.874 3.957 3.957 0 012.718-1.376c2.199-.18 4.12 1.442 4.302 3.615.173 2.163-1.459 4.07-3.658 4.25-.106.01-.221.01-.327.01zm.01-6.072c-.058 0-.116 0-.173.009a2.18 2.18 0 00-1.469.74 2.083 2.083 0 00-.5 1.547c.048.569.317 1.081.749 1.451.432.37.999.541 1.566.503a2.135 2.135 0 001.968-2.296 2.149 2.149 0 00-2.141-1.954z" fill="#000"/><path d="M129.883 248.214c2.977-.54 4.014-.427 4.667 1.424.355.996-.24 2.077-1.191 2.134l-2.852.19-.624-3.748z" fill="#fff"/><path d="M129.735 252.929l-.903-5.446.884-.162c2.823-.521 4.753-.654 5.704 2.012.278.787.182 1.66-.279 2.334a2.24 2.24 0 01-1.738 1.005l-3.668.257zm1.21-3.966l.336 2.04 2.017-.133a.407.407 0 00.316-.199.815.815 0 00.068-.722c-.327-.92-.461-1.318-2.737-.986zM129.335 260.174l-.315 1.795 4.162.715.316-1.795-4.163-.715z" fill="#000"/><path d="M119.416 258.586l-.955-11.639 12.121-.973.955 11.64-5.731 4.392-6.39-3.42z" fill="#2C39F2" stroke="#000"/><path d="M129.036 255.151c.125-.009.269-.038.413-.095l.096 1.385a4.321 4.321 0 01-1.21.304c-.778.057-1.392-.171-1.748-.702-.71.617-1.565 1.015-2.698 1.091-1.441.104-2.737-.598-2.843-2.04-.134-1.85 1.662-2.561 3.188-2.666a8.347 8.347 0 011.835.067l-.02-.257c-.057-.73-.691-1.186-1.891-1.1-1.057.076-1.979.417-2.67.74l-.135-1.822c.605-.246 1.748-.616 2.939-.702 2.295-.161 3.832.626 4.005 3.027l.172 2.324c.02.38.289.465.567.446zm-6.031-.332c.048.598.653.939 1.393.892.682-.048 1.325-.275 1.853-.788l-.096-1.252a6.882 6.882 0 00-1.45-.076c-.893.057-1.757.408-1.7 1.224z" fill="#fff"/><path d="M1.47 121.738l15.211 36.251 3.787-7.762 15.211 36.29 3.543-7.329 15.212 36.29 3.297-6.738 15.212 36.251 6.556-13.476-15.212-36.291-3.258 6.739-15.211-36.251-3.583 7.289-15.21-36.29-3.787 7.762-15.212-36.25-3.258 6.738-3.298 6.777zM250.333 198.437l-16.862 10.984 4.261 1.186-16.882 10.988 4.02 1.103-16.882 10.988 3.7 1.035-16.862 10.984 7.395 2.05 16.881-10.987-3.695-1.015 16.861-10.984-4.003-1.128 16.881-10.987-4.26-1.186 16.862-10.984-3.696-1.015-3.719-1.032z" fill="#9627A3"/><path d="M95.629 86.681l1.55 20.043 3.088-3.162 1.544 20.062 2.901-2.99 1.543 20.061 2.686-2.742 1.551 20.042 5.352-5.491-1.544-20.062-2.666 2.749-1.551-20.042-2.913 2.964-1.543-20.061-3.089 3.161-1.55-20.042-2.667 2.749-2.692 2.761z" fill="#FF1553"/><path d="M248.946 8.927l-29.396 40.84 11.013-1.077-29.44 40.867 10.377-1.052-29.439 40.867 9.567-.923-29.396 40.84 19.107-1.889 29.44-40.867-9.541.967 29.396-40.841-10.36.982 29.44-40.866-11.013 1.077 29.396-40.84-9.541.966-9.61.949z" fill="#2C39F2"/></svg>

<svg width="316" height="289" viewBox="0 0 316 289" fill="none" xmlns="http://www.w3.org/2000/svg">
<path d="M159.09 209.863L126.929 212.795L120.553 221.571L125.268 226.267L118.805 226.533L114.32 230.309L128.725 230.546V230.508L133.949 224.949L130.492 221.647L151.331 220.138L159.09 209.863Z" fill="#2C39F2"/>
<path d="M157.952 208.173L112.391 272.403L113.901 273.449L159.462 209.219L157.952 208.173Z" fill="black"/>
<path d="M162.126 204.275L157.324 207.776L158.64 208.773H158.649L159.965 209.769L162.126 204.275Z" fill="black"/>
<path d="M126.331 274.097L122.691 281.298L130.604 288.081L140.265 287.873" fill="white"/>
<path d="M130.263 289.001L121.543 281.524L125.499 273.688L127.151 274.503L123.829 281.069L130.935 287.16L140.24 286.961L140.279 288.782L130.263 289.001Z" fill="black"/>
<path d="M154.449 250.175L158.425 246.778L159.654 251.399" fill="white"/>
<path d="M158.772 251.638L157.908 248.421L155.056 250.86L153.855 249.484L158.936 245.139L160.549 251.173L158.772 251.638Z" fill="black"/>
<path d="M149.535 248.846L153.501 245.459L154.74 250.079" fill="white"/>
<path d="M153.847 250.308L152.992 247.101L150.13 249.539L148.93 248.154L154.019 243.818L155.623 249.843L153.847 250.308Z" fill="black"/>
<path d="M144.418 247.389L147.164 242.503L149.623 248.622" fill="white"/>
<path d="M148.778 248.954L147.03 244.618L145.234 247.825L143.621 246.943L147.309 240.387L150.487 248.28L148.778 248.954Z" fill="black"/>
<path d="M143.703 263.743C144.155 254.749 148.697 254.644 148.591 255.204L155.045 255.422C157.954 255.204 159.5 254.35 159.654 251.4L149.552 249.009L145.749 249.958L145.009 245.128L148.553 239.825L151.751 242.5L155.352 237.026L159.011 240.413L161.882 235.802L165.733 239.588L168.018 234.256L168.163 232.538L168.335 230.404L163.217 220.982L146.383 225.831L136.856 230.688C136.856 230.688 127.464 232.178 128.492 242.927V253.269L125.38 261.381L108.584 251.627L106.875 253.354C109.333 261.276 114.116 267.064 121.107 271.656L122.653 273.003L130.163 276.466L128.444 280.062L133.207 284.17L137.615 288.079H148.543L148.553 286.845C148.553 284.673 148.284 282.064 145.163 281.931H141.014L138.277 278.022C138.277 278.022 141.274 271.286 140.899 269.085" fill="white"/>
<path d="M149.455 288.99H137.259L132.592 284.854L127.32 280.3L128.933 276.903L122.038 273.677L120.54 272.368C113.155 267.501 108.392 261.362 105.991 253.611L105.828 253.089L108.431 250.471L124.9 260.034L127.56 253.089V242.909C126.542 232.321 135.233 230.072 136.539 229.797L146.113 224.93L163.668 219.873L169.267 230.186L168.863 234.588L166.05 241.163L162.055 237.245L159.193 241.827L155.515 238.421L151.943 243.858L148.745 241.182L145.969 245.338L146.507 248.829L149.551 248.07L160.614 250.689L160.576 251.448C160.374 255.404 157.705 256.144 155.121 256.334H155.073L147.669 256.078C147.496 256.163 147.304 256.286 147.083 256.467C146.267 257.159 144.865 259.038 144.635 263.782L142.791 263.687C143.137 256.827 145.835 254.901 146.978 254.389C147.765 254.038 148.534 254.009 149.014 254.304L155.035 254.512C157.426 254.323 158.396 253.725 158.665 252.093L149.561 249.939L144.99 251.078L144.039 244.911L148.351 238.459L151.539 241.125L155.179 235.603L158.809 238.972L161.699 234.332L165.406 237.975L167.096 234.019L167.375 230.575L162.737 222.036L146.699 226.657L137 231.562C136.654 231.619 128.472 233.07 129.404 242.824V253.412L125.851 262.681L108.738 252.767L107.922 253.592C110.274 260.793 114.634 266.296 121.616 270.888L121.712 270.964L123.152 272.226L131.382 276.021L129.567 279.825L133.802 283.487L137.96 287.169H147.621V286.837C147.621 283.962 146.968 282.918 145.115 282.833H140.524L137.221 278.117L137.432 277.653C138.546 275.148 140.236 270.641 139.987 269.228L141.802 268.924C142.167 271.049 140.112 276.097 139.324 277.918L141.494 281.021H145.163C149.465 281.201 149.465 285.3 149.465 286.846L149.455 288.99Z" fill="black"/>
<path d="M140.678 269.845C141.907 268.28 144.663 263.014 144.663 263.014L147.88 260.206L147.966 259.095L148.37 253.934L152 250.471C148.399 245.025 142.81 249.485 142.81 249.485L142.31 256.6L140.562 256.259L137.211 257.397" fill="white"/>
<path d="M141.475 270.472L139.861 269.229C140.822 268.005 142.992 264.001 143.741 262.559L143.827 262.388L146.881 259.732L147.361 253.479L150.626 250.367C149.887 249.494 149.032 248.982 148.072 248.83C146.286 248.555 144.5 249.561 143.77 250.035L143.222 257.815L140.61 257.312L137.518 258.356L136.855 256.449L140.466 255.225L141.35 255.396L141.801 248.972L142.147 248.697C142.272 248.602 145.172 246.325 148.399 246.828C150.175 247.103 151.673 248.147 152.845 249.921L153.306 250.623L149.349 254.399L148.859 260.699L145.47 263.65C144.98 264.589 142.637 269.001 141.475 270.472Z" fill="black"/>
<path d="M143.954 236.149L137.379 237.968L137.873 239.723L144.449 237.904L143.954 236.149Z" fill="black"/>
<path d="M143.577 236.33L138.75 240.418L139.95 241.801L144.777 237.714L143.577 236.33Z" fill="black"/>
<path d="M147.294 230.897L146.785 229.151L156.849 226.314L158.943 227.747L157.896 229.246L156.513 228.297L147.294 230.897Z" fill="black"/>
<path d="M165.359 243.183L165.191 244.979L173.062 245.695L173.229 243.9L165.359 243.183Z" fill="#2C39F2"/>
<path d="M170.61 254.635L165.79 253.06L166.807 249.587L161.199 247.927L161.814 245.906L169.429 248.174L168.411 251.694L171.273 252.633L170.61 254.635Z" fill="#2C39F2"/>
<path d="M140.894 269.075C139.088 258.591 130.676 262.168 130.676 262.168L140.894 269.075Z" fill="white"/>
<path d="M139.975 269.225C139.447 266.142 138.275 264.083 136.499 263.125C134.021 261.787 131.063 262.992 131.035 263.001L130.305 261.332C130.458 261.265 134.088 259.757 137.363 261.521C139.668 262.755 141.156 265.25 141.79 268.922L139.975 269.225Z" fill="black"/>
<path d="M122.073 242.502L125.146 245.68L126.299 249.902L126.03 251.525L121.315 254.712L118.789 246.193L122.073 242.502Z" fill="white"/>
<path d="M120.783 256.173L117.758 245.964L122.041 241.154L125.959 245.215L127.236 249.845L126.871 252.046L120.783 256.173ZM119.813 246.41L121.839 253.251L125.181 250.993L125.354 249.949L124.307 246.145L122.089 243.849L119.813 246.41Z" fill="black"/>
<path d="M115.549 237.816C115.549 237.816 114.79 234.742 113.186 233.452C111.438 232.048 110.728 231.877 110.728 231.877L110.757 233.888L110.488 233.642C109.307 232.57 107.482 232.598 106.339 233.699L107.616 234.363C106.233 235.065 105.148 236.232 104.563 237.664L104.255 238.414L105.657 238.774L104.102 245.909L108.49 240.027L111.112 236.668L115.549 237.816Z" fill="white"/>
<path d="M102.293 249.864L104.569 239.437L103.004 239.029L103.705 237.321C104.166 236.202 104.886 235.215 105.817 234.456L104.79 233.915L105.692 233.052C106.816 231.97 108.429 231.676 109.812 232.189L109.793 230.728L110.936 230.993C111.147 231.041 111.992 231.316 113.769 232.748C115.565 234.191 116.362 237.255 116.448 237.606L116.813 239.086L111.474 237.71L109.226 240.595L102.293 249.864ZM105.5 237.796L106.739 238.118L105.904 241.961L107.748 239.494L110.753 235.642L111.541 235.841L109.86 234.314C109.457 233.944 108.948 233.764 108.439 233.764C108.429 233.764 108.429 233.764 108.42 233.764L109.601 234.38L108.026 235.177C106.912 235.746 106.019 236.667 105.5 237.796ZM111.694 235.879L114.134 236.515C113.769 235.652 113.25 234.684 112.597 234.162C112.232 233.868 111.925 233.64 111.656 233.45L111.694 235.879Z" fill="black"/>
<path d="M129.406 269.569L136.013 270.935V270.878C136.109 269.189 135.101 267.634 133.517 266.998L133.267 266.894L133.881 257.539L124.134 254.161C122.041 254.484 120.917 256.78 121.983 258.592L122.348 259.228L128.725 260.499L129.541 267.017L129.406 269.569Z" fill="white"/>
<path d="M136.899 271.979L135.842 271.818L128.458 270.291L128.63 267.036L127.901 261.249L121.764 260.025L121.188 259.038C120.544 257.928 120.487 256.572 121.053 255.414C121.62 254.257 122.715 253.45 124.002 253.251L124.232 253.213L134.863 256.894L134.248 266.296C135.986 267.16 137.062 268.962 136.956 270.907L136.899 271.979ZM130.378 268.839L134.978 269.788C134.709 268.915 134.066 268.194 133.182 267.843L132.308 267.501L132.913 258.175L124.059 255.11C123.464 255.262 122.964 255.661 122.696 256.22C122.388 256.847 122.417 257.549 122.772 258.146L122.936 258.422L129.562 259.74L130.474 266.989L130.378 268.839Z" fill="black"/>
<path d="M123.326 239.428C124.44 238.631 124.392 237.692 124.133 236.354L124.104 236.183L122.404 237.103C121.021 235.339 118.284 235.026 116.527 236.781C115.288 238.024 115.125 239.969 116.018 241.477L116.028 241.487C116.969 243.062 118.889 243.887 120.647 243.308C121.194 243.128 121.665 242.853 122.058 242.502L122.154 242.54L122.231 242.331C122.999 241.553 123.384 240.49 123.326 239.428Z" fill="white"/>
<path d="M119.503 244.399C117.812 244.399 116.151 243.488 115.229 241.942C114.086 240.025 114.355 237.644 115.863 236.135C116.871 235.129 118.187 234.617 119.599 234.703C120.722 234.769 121.769 235.215 122.585 235.955L124.775 234.778L125.034 236.183C125.284 237.511 125.399 238.792 124.237 239.854C124.189 240.945 123.757 241.999 123.017 242.814L122.672 243.735L122.201 243.545C121.817 243.811 121.385 244.019 120.933 244.171C120.463 244.323 119.983 244.399 119.503 244.399ZM119.311 236.524C118.513 236.524 117.764 236.837 117.179 237.425C116.257 238.346 116.103 239.826 116.814 241.021C117.563 242.283 119.051 242.881 120.357 242.454C120.761 242.321 121.126 242.112 121.433 241.837L121.567 241.704C122.143 241.116 122.451 240.31 122.403 239.484L122.374 238.991L122.787 238.697C123.19 238.412 123.363 238.147 123.363 237.625L122.153 238.279L121.673 237.663C121.154 236.999 120.357 236.581 119.493 236.534C119.435 236.524 119.378 236.524 119.311 236.524Z" fill="black"/>
<path d="M121.924 236.283L119.059 237.945L119.992 239.516L122.858 237.854L121.924 236.283Z" fill="black"/>
<path d="M119.069 249.797C120.766 249.797 122.142 248.437 122.142 246.761C122.142 245.084 120.766 243.725 119.069 243.725C117.372 243.725 115.996 245.084 115.996 246.761C115.996 248.437 117.372 249.797 119.069 249.797Z" fill="white"/>
<path d="M119.071 250.709C118.13 250.709 117.218 250.377 116.488 249.769C115.672 249.086 115.182 248.128 115.095 247.084C115.009 246.031 115.345 245.016 116.036 244.21C116.728 243.403 117.688 242.919 118.754 242.834C120.953 242.654 122.874 244.276 123.056 246.449C123.229 248.612 121.597 250.519 119.398 250.699C119.292 250.709 119.177 250.709 119.071 250.709ZM119.081 244.637C119.023 244.637 118.965 244.637 118.908 244.646C118.332 244.694 117.813 244.959 117.439 245.386C117.064 245.823 116.891 246.373 116.939 246.933C116.987 247.502 117.256 248.014 117.688 248.384C118.12 248.754 118.687 248.925 119.254 248.887C120.435 248.792 121.318 247.768 121.222 246.591C121.126 245.481 120.185 244.637 119.081 244.637Z" fill="black"/>
<path d="M129.883 248.214C132.86 247.674 133.897 247.787 134.55 249.638C134.905 250.634 134.31 251.715 133.359 251.772L130.507 251.962L129.883 248.214Z" fill="white"/>
<path d="M129.735 252.929L128.832 247.483L129.716 247.321C132.539 246.8 134.469 246.667 135.42 249.333C135.698 250.12 135.602 250.993 135.141 251.667C134.738 252.264 134.104 252.634 133.403 252.672L129.735 252.929ZM130.945 248.963L131.281 251.003L133.298 250.87C133.461 250.86 133.557 250.756 133.614 250.671C133.72 250.519 133.787 250.244 133.682 249.949C133.355 249.029 133.221 248.631 130.945 248.963Z" fill="black"/>
<path d="M129.335 260.174L129.02 261.969L133.182 262.684L133.498 260.889L129.335 260.174Z" fill="black"/>
<path d="M119.416 258.586L118.461 246.947L130.582 245.974L131.537 257.614L125.806 262.006L119.416 258.586Z" fill="#2C39F2" stroke="black"/>
<path d="M129.036 255.151C129.161 255.142 129.305 255.113 129.449 255.056L129.545 256.441C129.199 256.584 128.758 256.707 128.335 256.745C127.557 256.802 126.943 256.574 126.587 256.043C125.877 256.66 125.022 257.058 123.889 257.134C122.448 257.238 121.152 256.536 121.046 255.094C120.912 253.244 122.708 252.533 124.234 252.428C124.839 252.381 125.521 252.409 126.069 252.495L126.049 252.238C125.992 251.508 125.358 251.052 124.158 251.138C123.101 251.214 122.179 251.555 121.488 251.878L121.353 250.056C121.958 249.81 123.101 249.44 124.292 249.354C126.587 249.193 128.124 249.98 128.297 252.381L128.469 254.705C128.489 255.085 128.758 255.17 129.036 255.151ZM123.005 254.819C123.053 255.417 123.658 255.758 124.398 255.711C125.08 255.663 125.723 255.436 126.251 254.923L126.155 253.671C125.781 253.614 125.214 253.557 124.705 253.595C123.812 253.652 122.948 254.003 123.005 254.819Z" fill="white"/>
<path d="M1.46991 121.738L16.6815 157.989L20.4681 150.227L35.6793 186.517L39.2223 179.188L54.4335 215.478L57.7312 208.74L72.9428 244.991L79.4985 231.515L64.2874 195.224L61.0293 201.963L45.8177 165.712L42.2354 173.001L27.0243 136.711L23.2377 144.473L8.02614 108.223L4.76814 114.961L1.46991 121.738Z" fill="#9627A3"/>
<path d="M250.333 198.437L233.471 209.421L237.732 210.607L220.85 221.595L224.87 222.698L207.988 233.686L211.688 234.721L194.826 245.705L202.221 247.755L219.102 236.768L215.407 235.753L232.268 224.769L228.265 223.641L245.146 212.654L240.886 211.468L257.748 200.484L254.052 199.469L250.333 198.437Z" fill="#9627A3"/>
<path d="M95.6288 86.6814L97.1792 106.724L100.267 103.562L101.811 123.624L104.712 120.634L106.255 140.695L108.941 137.953L110.492 157.995L115.844 152.504L114.3 132.442L111.634 135.191L110.083 115.149L107.17 118.113L105.627 98.0518L102.538 101.213L100.988 81.1709L98.3214 83.9199L95.6288 86.6814Z" fill="#FF1553"/>
<path d="M248.946 8.92677L219.55 49.7674L230.563 48.6904L201.123 89.557L211.5 88.5049L182.061 129.372L191.628 128.449L162.232 169.289L181.339 167.4L210.779 126.533L201.238 127.5L230.634 86.6589L220.274 87.6414L249.714 46.7747L238.701 47.8518L268.097 7.01122L258.556 7.9778L248.946 8.92677Z" fill="#2C39F2"/>
</svg>
